!!!COA: Josquin des Prez
!!!CDT: ~1450-1521/08/27
!!!OTL@@LAT: Ave verum corpus
!!!OTL2@@LAT: Cujus latus
!!!OTL3@@LAT: O dulcis Jesu
!!!AGN: Motet
!!!SCT: NJE 21.3
!!!SCA: New Josquin Edition 21.3
!!!voices: 5
**kern	**kern	**kern	**kern	**kern
*staff5	*staff4	*staff3	*staff2	*staff1
*Ivox	*Ivox	*Ivox	*Ivox	*Ivox
*I"Bassus	*I"Tenor2	*I"Tenor1	*I"Altus	*I"Superius
*I'B	*I'T2	*I'T1	*I'A	*I'S
*clefF4	*clefGv2	*clefGv2	*clefGv2	*clefG2
*k[b-]	*k[b-]	*k[b-]	*k[b-]	*k[b-]
*M2/1	*M2/1	*M2/1	*M2/1	*M2/1
*met(O2)	*met(O2)	*met(O2)	*met(O2)	*met(O2)
=1-	=1-	=1-	=1-	=1-
!	!LO:TX:X=-40:Z=6:t=Fuga in epidiapenthe (Canon at the upper fifth)	!	!	!
0r	0r	0r	0r	[0f
=2.	=2.	=2.	=2.	=2.
0r	0r	0r	0r	0f]
=3.	=3.	=3.	=3.	=3.
0r	0r	0r	0r	0g
=4	=4	=4	=4	=4
[0F	0r	0r	0r	1.a
.	.	.	.	2g/
=5.	=5.	=5.	=5.	=5.
0F]	0r	0r	0r	2.f/
.	.	.	.	4e/
.	.	.	.	2d/
.	.	.	.	2c/
=6.	=6.	=6.	=6.	=6.
0G	0r	0r	0r	2.B-/
.	.	.	.	4A/
.	.	.	.	1B-
=7	=7	=7	=7	=7
1.A	0r	0r	[0F	1A
.	.	.	.	2.cc\
2G\	.	.	.	.
.	.	.	.	4b-\
=8.	=8.	=8.	=8.	=8.
2.F\	0r	0r	0F]	2a/
.	.	.	.	2g/
4E\	.	.	.	.
2D\	.	.	.	2f/
2C/	.	.	.	2e/
=9.	=9.	=9.	=9.	=9.
2BB-/	0r	0r	0G	2d/
2AA/	.	.	.	2c/
1GG	.	.	.	1B-
=10	=10	=10	=10	=10
1FF	[0F	0r	1A	1A
2.A\	.	.	[1F	2.cc\
4G\	.	.	.	4b-\
=11.	=11.	=11.	=11.	=11.
2F\	0F]	0r	2F/]	2a/
2E\	.	.	2G/	2g/
2D\	.	.	1A	2f/
2C/	.	.	.	2e/
=12.	=12.	=12.	=12.	=12.
2BB-/	0G	0r	2B-\	2d/
2AA/	.	.	2c\	2c/
1GG	.	.	2d\	1B-
.	.	.	2e\	.
=13	=13	=13	=13	=13
0FF	0A	[0c	1f	1A
.	.	.	[1F	[1cc
=14.	=14.	=14.	=14.	=14.
1.F	[0F	0c]	2F/]	2cc\]
.	.	.	2G/	2b-\
.	.	.	1A	[1a
2E\	.	.	.	.
=15.	=15.	=15.	=15.	=15.
0D	0F]	0d	1A	2a/]
.	.	.	.	2g/
.	.	.	1B-	1f
=16	=16	=16	=16	=16
0C	[0G	0e	1.c	1e
.	.	.	.	1c
.	.	.	2C/	.
=17.	=17.	=17.	=17.	=17.
1r	0G]	[0c	1C	1.cc
1C	.	.	1c	.
.	.	.	.	2b-\
=18.	=18.	=18.	=18.	=18.
1.F	0F	0c]	2.c\	2a/
.	.	.	.	2g/
.	.	.	4B-\	.
.	.	.	2.A/	[1f
2E\	.	.	.	.
.	.	.	4G/	.
=19	=19	=19	=19	=19
1.D	1B-	[0d	1F	2f/]
.	.	.	.	2g/
.	[1A	.	2r	1a
2C/	.	.	2E/	.
=20.	=20.	=20.	=20.	=20.
2.BB-/	2A/]	0d]	2.D/	0b-
.	4G/	.	.	.
4AA/	4F/	.	4C/	.
1BB-	1G	.	1D	.
=21.	=21.	=21.	=21.	=21.
0AA	0A	0c	2F/	2.cc\
.	.	.	4E/	.
.	.	.	4D/	4b-\
.	.	.	1E	4a/
.	.	.	.	4g/
.	.	.	.	[2a/
=22	=22	=22	=22	=22
1r	1r	1f	2.D/	2a/]
.	.	.	.	4g/
.	.	.	4C/	4f/
1C	1G	[1e	[1c	2g/
.	.	.	.	2e/
=23.	=23.	=23.	=23.	=23.
1D	0F	2e\]	2c\]	1.f
.	.	4d\	4B-\	.
.	.	4c\	4A/	.
1D	.	1d	1B-	.
.	.	.	.	2g/
=24.	=24.	=24.	=24.	=24.
0C	0E	0e	1c	2a/
.	.	.	.	1g
.	.	.	1C	.
.	.	.	.	4f/
.	.	.	.	4e/
=25	=25	=25	=25	=25
1.BB-	1.F	1r	1D	1d
.	.	1d	1D	2r
2AA/	2G/	.	.	2b-\
=26.	=26.	=26.	=26.	=26.
0AA	1A	0c	1E	2.cc\
.	.	.	.	4b-\
.	1F	.	1r	4a/
.	.	.	.	4g/
.	.	.	.	[2f/
=27.	=27.	=27.	=27.	=27.
0r	0G	0B-	0r	2f/]
.	.	.	.	4e/
.	.	.	.	4d/
.	.	.	.	2e/
.	.	.	.	4f/
.	.	.	.	4e/
=28	=28	=28	=28	=28
1r	0F	1.c	0r	1f
2r	.	.	.	1f
2F\	.	2d\	.	.
=29.	=29.	=29.	=29.	=29.
2E\	0r	1e	0r	1g
2C/	.	.	.	.
2.F\	.	1c	.	1a
4E\	.	.	.	.
=30.	=30.	=30.	=30.	=30.
1D	0r	0d	1F	2f/
.	.	.	.	1a
2r	.	.	1G	.
2BB-/	.	.	.	[2g/
=31	=31	=31	=31	=31
2AA/	0r	0c	1A	2g/]
2FF/	.	.	.	2f/
1C	.	.	2G/	1g
.	.	.	2E/	.
=32.	=32.	=32.	=32.	=32.
1.BB-	0F	0r	2.F/	1r
.	.	.	4E/	.
.	.	.	2D/	2r
2AA/	.	.	2C/	2a/
=33.	=33.	=33.	=33.	=33.
2.GG/	0G	0r	2D/	1b-
.	.	.	1F	.
4FF/	.	.	.	.
1GG	.	.	.	1g
.	.	.	2E/	.
=34	=34	=34	=34	=34
1FF	0A	0r	1.F	1.cc
[1F	.	.	.	.
.	.	.	2G/	2b-\
=35.	=35.	=35.	=35.	=35.
2F\]	1F	0c	1A	2.a/
4E\	.	.	.	.
4D\	.	.	.	4b-\
1E	1G	.	1r	2g/
.	.	.	.	2e/
=36.	=36.	=36.	=36.	=36.
0D	2.F/	0d	1A	1f
.	4G/	.	.	.
.	2A/	.	1F	1d
.	2B-\	.	.	.
=37	=37	=37	=37	=37
0C	2.c\	0e	1G	1.g
.	8B-/L	.	.	.
.	8A/J	.	.	.
.	2G/	.	1E	.
.	[2c\	.	.	2f/
=38.	=38.	=38.	=38.	=38.
2.C/	4c\]	1c	2r	2.e/
.	4B-\	.	.	.
.	1A	.	2A/	.
4D\	.	.	.	4f/
1BB-	.	1d	1B-	1d
.	2G/	.	.	.
=39.	=39.	=39.	=39.	=39.
0AA	0A	2.c\	1.c	1.a
.	.	4d\	.	.
.	.	2e\	.	.
.	.	2f\	4B-\	4g/
.	.	.	4A/	4f/
=40	=40	=40	=40	=40
2r	0r	2.g\	2.G/	4e/
.	.	.	.	8d/L
.	.	.	.	8c/J
2C/	.	.	.	2.g/
.	.	8f\L	4A/	.
.	.	8e\J	.	.
2BB-/	.	2d\	4B-\	.
.	.	.	4A/	4f/
[2C/	.	[2g\	4G/	[2e/
.	.	.	4F/	.
=41.	=41.	=41.	=41.	=41.
2C/]	0r	4g\]	4E/	4e/]
.	.	4f\	4F/	4d/
2C/	.	1e	1G	1c
2D\	.	.	.	.
2D\	.	2d\	2F/	2B-/
=42.	=42.	=42.	=42.	=42.
1C	0r	0e	2G/	1c
.	.	.	4C/	.
.	.	.	4D/	.
2r	.	.	4E/	2r
.	.	.	4F/	.
2C/	.	.	4G/	2e/
.	.	.	4A/	.
=43	=43	=43	=43	=43
2BB-/	0G	0r	4B-\	2d/
.	.	.	4c\	.
2BB-/	.	.	1d	2d/
1C	.	.	.	1e
.	.	.	[2c\	.
=44.	=44.	=44.	=44.	=44.
2D\	1F	0r	2c\]	2f/
2D\	.	.	2Bni\	2d/
1C	1E	.	1c	1e
=45.	=45.	=45.	=45.	=45.
2r	0F	0r	0r	2r
2BB-/	.	.	.	2d/
2BB-/	.	.	.	2d/
2AA/	.	.	.	2c/
=46	=46	=46	=46	=46
2.BB-/	[0F	0d	2r	2.d/
.	.	.	2B-\	.
4C/	.	.	.	4e/
4D\	.	.	2B-\	4f/
4E\	.	.	.	4g/
[2F\	.	.	[2A/	[2a/
=47.	=47.	=47.	=47.	=47.
2F\]	0F]	1c	4A/]	4a/]
.	.	.	4B-\	4g/
2E\	.	.	2c\	4f/
.	.	.	.	4e/
1D	.	1B-	1d	2f/
.	.	.	.	4e/
.	.	.	.	4d/
=48.	=48.	=48.	=48.	=48.
0C	0G	0c	1r	2e/
.	.	.	.	1f
.	.	.	2r	.
.	.	.	2G/	2e/
=49	=49	=49	=49	=49
2r	[0Fl	[0c	1A	[0fl
2FF/	.	.	.	.
2.FF/	.	.	[1A	.
4GG/	.	.	.	.
=50.	=50.	=50.	=50.	=50.
1AA	0F_	0c]	1A]	0f_
1FF	.	.	1A	.
=51.	=51.	=51.	=51.	=51.
1.BB-	0F_	0d	1.B-	0f_
2FF/	.	.	2A/	.
=52	=52	=52	=52	=52
0FFl	0F]	0cl	0Al	0f]
!!LO:LB:i:g=z
=53||	=53||	=53||	=53||	=53||
*>B	*>B	*>B	*>B	*>B
!!section: Secunda pars: Cujus latus
!!!OMD: Secunda pars: Cujus latus
*M2/1	*M2/1	*M2/1	*M2/1	*M2/1
*met(C|)	*met(C|)	*met(C|)	*met(C|)	*met(C|)
0AA	0r	0r	0r	0r
=54	=54	=54	=54	=54
0C	0r	0r	0r	0r
=55	=55	=55	=55	=55
1.D	0r	0r	0A	0r
4C/	.	.	.	.
4BB-/	.	.	.	.
=56	=56	=56	=56	=56
2AA/	0r	0r	0c	0r
2FF/	.	.	.	.
2.F\	.	.	.	.
4E\	.	.	.	.
=57	=57	=57	=57	=57
2D\	0r	0r	0d	0r
2C/	.	.	.	.
1BB-	.	.	.	.
=58	=58	=58	=58	=58
1.AA	0r	0r	0c	0a
4GG/	.	.	.	.
4FF/	.	.	.	.
=59	=59	=59	=59	=59
1FF	0r	0r	2.c\	0cc
.	.	.	4B-\	.
2.F\	.	.	4A/	.
.	.	.	4G/	.
.	.	.	2c\	.
4E\	.	.	.	.
=60	=60	=60	=60	=60
2D\	0r	0r	2B-\	0dd
2C/	.	.	1A	.
2.BB-/	.	.	.	.
.	.	.	2G/	.
4AA/	.	.	.	.
=61	=61	=61	=61	=61
2FF/	1r	0r	1A	2.cc\
2.F\	.	.	.	.
.	.	.	.	4b-\
.	1A	.	1F	2a/
4E\	.	.	.	.
2D\	.	.	.	4g/
.	.	.	.	4f/
=62	=62	=62	=62	=62
2C/	1c	0r	2G/	2e/
2AA/	.	.	1A	1f
1BB-	1d	.	.	.
.	.	.	2G/	4e/
.	.	.	.	4d/
=63	=63	=63	=63	=63
0AA	0c	1r	0A	1f
.	.	1e	.	1e
=64	=64	=64	=64	=64
2r	1B-	1g	2.G/	4d/
.	.	.	.	4c/
1G	.	.	.	2d/
.	.	.	4F/	.
.	1A	1a	1D	1f
2F\	.	.	.	.
=65	=65	=65	=65	=65
1G	1B-	0g	0r	2e/
.	.	.	.	1d
1E	1G	.	.	.
.	.	.	.	2c/
=66	=66	=66	=66	=66
1D	0A	1f	2r	4d/
.	.	.	.	4e/
.	.	.	1d	4f/
.	.	.	.	4g/
1AA	.	1e	.	4a/
.	.	.	.	4b-\
.	.	.	2c\	4cc\
.	.	.	.	4a/
=67	=67	=67	=67	=67
0r	0r	1f	1d	2b-\
.	.	.	.	1a
.	.	1d	1B-	.
.	.	.	.	2g/
=68	=68	=68	=68	=68
2r	0r	0e	2A/	1a
1AA	.	.	1A	.
.	.	.	.	1cc
2AA/	.	.	2A/	.
=69	=69	=69	=69	=69
2BB-/	1r	0r	2G/	2b-\
2C/	.	.	2E/	1a
2D\	1B-	.	2F/	.
2E\	.	.	2G/	2g/
=70	=70	=70	=70	=70
2F\	2A/	0r	2A/	2f/
2G\	2G/	.	2B-\	2d/
1A	1F	.	1c	1f
=71	=71	=71	=71	=71
1AA	1E	1r	2.c\	0r
.	.	.	4B-\	.
2r	1F	1f	4A/	.
.	.	.	4G/	.
2D\	.	.	4F/	.
.	.	.	4D/	.
=72	=72	=72	=72	=72
2C/	1G	2e\	2E/	1r
2BB-/	.	2d\	1G	.
1AA	2A/	1c	.	1a
.	2F/	.	[2F/	.
=73	=73	=73	=73	=73
2GG/	1G	1B-	2F/]	1b-
2G\	.	.	2E/	.
2A\	1F	1c	2r	[1a
[2F\	.	.	[2A/	.
=74	=74	=74	=74	=74
2F\]	0r	1d	2A/]	2a/]
2G\	.	.	2B-\	2g/
2E\	.	2e\	2G/	2g/
2F\	.	2c\	2A/	2f/
=75	=75	=75	=75	=75
1BB-	1B-	1d	2.F/	1f
.	.	.	4G/	.
2r	2A/	1c	4A/	2r
.	.	.	4B-\	.
2C/	2G/	.	[2c\	2e/
=76	=76	=76	=76	=76
1D	1F	0r	2c\]	2f/
.	.	.	2B-\	2d/
1C	1E	.	1c	1e
=77	=77	=77	=77	=77
1D	1F	1f	1A	1d
2C/	1G	2e\	1r	1r
2BB-/	.	2d\	.	.
=78	=78	=78	=78	=78
2AA/	1A	1c	0r	1r
2C/	.	.	.	.
1D	1F	1B-	.	1f
=79	=79	=79	=79	=79
1C	1G	1c	2r	1e
.	.	.	2G/	.
2r	1F	1d	2A/	1f
[2F\	.	.	2A/	.
=80	=80	=80	=80	=80
2F\]	0r	1e	1G	1g
2E\	.	.	.	.
2.F\	.	1c	2.A/	1f
4E\	.	.	4G/	.
=81	=81	=81	=81	=81
2D\	0r	1d	2A/	2f/
2BB-/	.	.	2B-\	2f/
1C	.	1c	1G	4e/
.	.	.	.	4d/
.	.	.	.	2e/
=82	=82	=82	=82	=82
1FF	0A	0r	1F	[0f
2r	.	.	2r	.
2F\	.	.	2A/	.
=83	=83	=83	=83	=83
1F	1c	0r	1A	0f]
1BB-	1d	.	1B-	.
=84	=84	=84	=84	=84
[0C	1c	0e	1G	1r
.	1r	.	2r	[1e
.	.	.	2c\	.
=85	=85	=85	=85	=85
1C]	0r	1g	1c	1e]
1r	.	1a	1F	1f
=86	=86	=86	=86	=86
0C	1r	1g	0G	1e
.	2.c\	1r	.	1e
.	4B-\	.	.	.
=87	=87	=87	=87	=87
2.D\	4A/	0r	0r	2.f/
.	4G/	.	.	.
.	2B-\	.	.	.
8C/L	.	.	.	8e/L
8BB-/J	.	.	.	8d/J
2C/	2A/	.	.	2.e/
2AA/	[2c\	.	.	.
.	.	.	.	4d/
=88	=88	=88	=88	=88
2C/	4c\]	1r	0r	2e/
.	4B-\	.	.	.
2D\	1A	.	.	2f/
1BB-	.	2.g\	.	1d
.	2G/	.	.	.
.	.	4f\	.	.
=89	=89	=89	=89	=89
0r	1A	4e\	2r	1c
.	.	4d\	.	.
.	.	2f\	2F/	.
.	1r	2e\	2.G/	2r
.	.	[2g\	.	2b-\
.	.	.	8F/L	.
.	.	.	8E/J	.
=90	=90	=90	=90	=90
0r	0r	4g\]	2G/	2b-\
.	.	4f\	.	.
.	.	1e	2A/	1cc
.	.	.	1F	.
.	.	2d\	.	4b-\
.	.	.	.	4a/
=91	=91	=91	=91	=91
2r	1r	1e	1E	2g/
2C/	.	.	.	2c/
1BB-	1B-	1r	2.F/	2.d/
.	.	.	4G/	4e/
=92	=92	=92	=92	=92
2F\	2A/	0r	4A/	2f/
.	.	.	4B-\	.
2E\	2G/	.	1c	1g
1D	2A/	.	.	.
.	2F/	.	2B-\	[2f/
=93	=93	=93	=93	=93
1C	1G	1r	1c	2f/]
.	.	.	.	2e/
1FF	1F	1f	2r	4f/
.	.	.	.	4g/
.	.	.	[2c\	4a/
.	.	.	.	4b-\
=94	=94	=94	=94	=94
0r	0r	2e\	2c\]	2cc\
.	.	2d\	2B-\	1dd
.	.	2e\	1A	.
.	.	2c\	.	[2cc\
=95	=95	=95	=95	=95
1r	1B-	1d	1G	2cc\]
.	.	.	.	2bni\
2r	2A/	1c	2r	[1cc
2C/	2G/	.	2c\	.
=96	=96	=96	=96	=96
2C/	2A/	0r	2e\	2cc\]
2D\	2F/	.	1d	4b-\
.	.	.	.	4a/
2E\	1G	.	.	2.g/
2C/	.	.	[2c\	.
.	.	.	.	4e/
=97	=97	=97	=97	=97
1D	1F	1f	2c\]	2f/
.	.	.	2B-\	2d/
2C/	1r	2e\	2c\	2e/
2BB-/	.	2d\	2d\	[2f/
=98	=98	=98	=98	=98
1C	1r	2e\	1c	2f/]
.	.	2c\	.	2e/
1r	[1B-	1d	1r	1f
=99	=99	=99	=99	=99
0F	2B-\]	1c	1r	1r
.	4A/	.	.	.
.	4G/	.	.	.
.	1A	1r	[1F	1cc
=100	=100	=100	=100	=100
0BB-	1.B-	1r	1F]	0dd
.	.	[1f	1D	.
.	2A/	.	.	.
=101	=101	=101	=101	=101
0C	2.G/	2f\]	0E	0cc
.	.	4e\	.	.
.	4F/	4d\	.	.
.	1G	1e	.	.
=102	=102	=102	=102	=102
1.D	[0Fl	1.f	0A	0a
2C/	.	2e\	.	.
=103	=103	=103	=103	=103
2.BB-/	0F_	2.d\	0D	1.b-
4AA/	.	4c\	.	.
1BB-	.	1d	.	.
.	.	.	.	2b-\
=104	=104	=104	=104	=104
0FFl	0F]	0cl	0Al	0al
!!LO:LB:i:g=z
=105||	=105||	=105||	=105||	=105||
*>C	*>C	*>C	*>C	*>C
!!section: Tertia pars: O dulcis Jesu
!!!OMD: Tertia pars: O dulcis Jesu
*M2/1	*M2/1	*M2/1	*M2/1	*M2/1
*met(C|)	*met(C|)	*met(C|)	*met(C|)	*met(C|)
1.F	0r	0r	0A	[0f
2E\	.	.	.	.
=106	=106	=106	=106	=106
2.D\	0F	0r	1A	0f]
4C/	.	.	.	.
1D	.	.	1B-	.
=107	=107	=107	=107	=107
1C	0G	0c	1c	0e
1E	.	.	1C	.
=108	=108	=108	=108	=108
1D	0A	0d	2.F/	0f
.	.	.	4E/	.
1F	.	.	4D/	.
.	.	.	4C/	.
.	.	.	[2F/	.
=109	=109	=109	=109	=109
0C	1.G	0e	2F/]	0g
.	.	.	4E/	.
.	.	.	4D/	.
.	.	.	1E	.
.	2A/	.	.	.
=110	=110	=110	=110	=110
1BB-	1B-	1.d	1F	1r
[1D	[1A	.	[1F	1f
.	.	2e\	.	.
=111	=111	=111	=111	=111
1D]	2A/]	1f	2F/]	1a
.	4G/	.	2E/	.
.	4F/	.	.	.
1E	1G	[1e	1C	1g
=112	=112	=112	=112	=112
0F	0A	2e\]	2r	0f
.	.	4d\	2c\	.
.	.	4c\	.	.
.	.	1d	2A/	.
.	.	.	2F/	.
=113	=113	=113	=113	=113
0C	0r	0e	0c	0g
=114	=114	=114	=114	=114
1.F	0r	0r	0A	0a
2E\	.	.	.	.
=115	=115	=115	=115	=115
2.D\	0F	0r	1A	0f
4C/	.	.	.	.
1D	.	.	1B-	.
=116	=116	=116	=116	=116
1C	0G	0c	1c	0e
1E	.	.	1C	.
=117	=117	=117	=117	=117
1D	0A	0d	2.F/	0f
.	.	.	4E/	.
1F	.	.	4D/	.
.	.	.	4C/	.
.	.	.	[2F/	.
=118	=118	=118	=118	=118
0C	1.G	0e	2F/]	0g
.	.	.	4E/	.
.	.	.	4D/	.
.	.	.	1E	.
.	2A/	.	.	.
=119	=119	=119	=119	=119
1BB-	1B-	1.d	1F	1r
[1D	[1A	.	[1F	1f
.	.	2e\	.	.
=120	=120	=120	=120	=120
1D]	2A/]	1f	2F/]	1a
.	4G/	.	2D/	.
.	4F/	.	.	.
1E	1G	[1e	1C	1g
=121	=121	=121	=121	=121
0F	0A	2e\]	2r	0f
.	.	4d\	2c\	.
.	.	4c\	.	.
.	.	1d	2A/	.
.	.	.	2F/	.
=122	=122	=122	=122	=122
0C	0r	0e	1.c	0g
.	.	.	4B-\	.
.	.	.	4A/	.
=123	=123	=123	=123	=123
1r	0r	0r	2.A/	1.a
.	.	.	4B-\	.
1F	.	.	2c\	.
.	.	.	2d\	4g/
.	.	.	.	4a/
=124	=124	=124	=124	=124
1G	1r	0r	1B-	2b-\
.	.	.	.	2g/
1F	1c	.	1A	2a/
.	.	.	.	4g/
.	.	.	.	4f/
=125	=125	=125	=125	=125
1BB-	1d	1r	1B-	2g/
.	.	.	.	1f
1C	1c	1g	1G	.
.	.	.	.	2e/
=126	=126	=126	=126	=126
2r	1F	1a	2c\	1f
2AA/	.	.	2C/	.
2BB-/	1G	1g	2D/	1r
2C/	.	.	[2E/	.
=127	=127	=127	=127	=127
1AA	1A	1c	4E/]	1cc
.	.	.	4D/	.
.	.	.	2E/	.
2BB-/	[1G	1d	1D	1b-
2GG/	.	.	.	.
=128	=128	=128	=128	=128
1C	2G/]	1e	4C/	2.cc\
.	.	.	4D/	.
.	2A/	.	4E/	.
.	.	.	4F/	4a/
[1BB-	1B-	[1d	4G/	[1dd
.	.	.	4A/	.
.	.	.	4B-\	.
.	.	.	4c\	.
=129	=129	=129	=129	=129
2BB-/]	1G	2d\]	2.d\	1dd]
2C/	.	2e\	.	.
.	.	.	4c\	.
1D	1F	1f	2B-\	1dd
.	.	.	[2A/	.
=130	=130	=130	=130	=130
1BB-	0r	1d	2A/]	2r
.	.	.	2G/	2b-\
1AA	.	1c	1A	2cc\
.	.	.	.	[2a/
=131	=131	=131	=131	=131
2r	0r	0r	2r	4a/]
.	.	.	.	4b-\
2F\	.	.	2A/	2cc\
1G	.	.	1B-	2b-\
.	.	.	.	2g/
=132	=132	=132	=132	=132
1F	1c	0r	1A	2a/
.	.	.	.	4g/
.	.	.	.	4f/
1BB-	1d	.	1B-	2g/
.	.	.	.	[2f/
=133	=133	=133	=133	=133
1C	1c	1g	1G	2f/]
.	.	.	.	2e/
1r	1F	1a	2r	1f
.	.	.	2D/	.
=134	=134	=134	=134	=134
1C	0G	1g	1E	1e
1E	.	1c	1C	1g
=135	=135	=135	=135	=135
1D	0A	0d	1F	0f
1F	.	.	1D	.
=136	=136	=136	=136	=136
2.E\	1G	0e	1r	1g
4D\	.	.	.	.
1C	1A	.	1E	1r
=137	=137	=137	=137	=137
2BB-/	0B-	1d	2F/	1r
2GG/	.	.	2.G/	.
1G	.	1e	.	1g
.	.	.	4A/	.
.	.	.	2B-\	.
=138	=138	=138	=138	=138
1F	0A	0f	1c	1.a
1D	.	.	2.d\	.
.	.	.	.	2f/
.	.	.	4c\	.
=139	=139	=139	=139	=139
1E	0G	0e	4B-\	1.g
.	.	.	4A/	.
.	.	.	2B-\	.
1C	.	.	2.c\	.
.	.	.	.	2e/
.	.	.	4B-\	.
=140	=140	=140	=140	=140
1D	1F	0d	4A/	1.f
.	.	.	4G/	.
.	.	.	2A/	.
1BB-	[1F	.	2.B-\	.
.	.	.	.	2d/
.	.	.	4A/	.
=141	=141	=141	=141	=141
0C	2F/]	1c	2A/	0e
.	4E/	.	4G/	.
.	4D/	.	4F/	.
.	1E	[1c	1G	.
=142	=142	=142	=142	=142
0D	0F	2c\]	2r	2.d/
.	.	4B-\	2F/	.
.	.	4A/	.	4c/
.	.	1B-	2F/	[1f
.	.	.	2D/	.
=143	=143	=143	=143	=143
0C	0G	0c	1E	2f/]
.	.	.	.	4e/
.	.	.	.	4d/
.	.	.	2C/	1e
.	.	.	[2c\	.
=144	=144	=144	=144	=144
[0FFl	[0Fl	0d	4c\]	[0fl
.	.	.	4B-\	.
.	.	.	4A/	.
.	.	.	4G/	.
.	.	.	[1Al	.
=145	=145	=145	=145	=145
0FF]	0F]	0cl	0A]	0f]
==	==	==	==	==
*-	*-	*-	*-	*-
!!!RDF**kern: l=long note in original notation
!!!RDF**kern: i=editorial accidental
!!!ENC: Will Watson 30/06/2011
!!!END: 2011/06/30
!!!EED: Jesse Rodin
!!!EEV: 2011/11/03/
!!attribution-level@Jos: 4 (questionable)
!!!ONB: Translated from MusicXML and edited on 2011/11/03/ by Craig Sapp
!!muse2ps: u^(2) @{OTL2}  (3) @{OTL3}^C^@{COA}?\n@{SCT}^i2I100v85,85,85,85,130Q16
